X:WFS 14-05 34
T:Kate Elliot
S:Walthamstow session 2014-05-13
Z:<djl@colourcountry.net>
M:6/8
K:D
P:A
DFA DFA dfd ecA |1,3 gfe dcB ABA GFE :|2,4 gfe dcB Afe d3 :|
P:B
aAA gAA fgf ecA |1,3 gfe dcB ABA GFE :|2 gfe dcB Afe d3 :| [P:(A2)] ||

% WFS 14-05 35 Old Molly Oxford

% WFS 14-05 36 Old Tom Of Oxford

